modules/hawcons-stroke/icons/three-fingers-swipe-right.svg

<?xml version="1.0" encoding="UTF-8" standalone="no"?>
<svg width="32px" height="32px" viewBox="0 0 32 32" version="1.1" xmlns="http://www.w3.org/2000/svg" xmlns:xlink="http://www.w3.org/1999/xlink" xmlns:sketch="http://www.bohemiancoding.com/sketch/ns">
    <!-- Generator: Sketch 3.0.3 (7891) - http://www.bohemiancoding.com/sketch -->
    <title>icon 29 three fingers swipe right</title>
    <desc>Created with Sketch.</desc>
    <defs></defs>
    <g id="Page-1" stroke="none" stroke-width="1" fill="none" fill-rule="evenodd" sketch:type="MSPage">
        <g id="icon-29-three-fingers-swipe-right" sketch:type="MSArtboardGroup" fill="#929292">
            <path d="M21.1244203,6 L21.1244203,5.50345613 C21.1244203,4.12083549 20.0147583,3 18.6244203,3 C17.9891015,3 17.4091333,3.23662723 16.9680923,3.62713444 C16.6155981,2.67671416 15.7047395,2 14.6244203,2 C13.5516343,2 12.6366695,2.67469496 12.2819171,3.62568646 C11.8421142,3.23628158 11.2628592,3 10.6244203,3 C9.24370846,3 8.12442034,4.12598062 8.12442034,5.50282288 L8.12442034,14.3667868 L8.12442034,14.3667868 C6.16926196,12.5381668 3.9371827,11.1742982 2.51553361,12.5959473 C0.528273194,14.5832077 4.70175208,18.4825159 7.9652407,24.4282229 C10.2262274,28.5474856 13.5115051,30.0000003 16.6244203,30.0000003 C21.3188409,30 25.1244203,26.1944206 25.1244203,21.5 L25.1244203,15.5143168 C25.1244203,14.1335355 24.0147583,13.014191 22.6244203,13.014191 C22.0616174,13.014191 21.5422506,13.2003871 21.1244203,13.5145117 L21.1244203,7 L28.1744193,7 L24.9244193,10.25 L25.6744193,11 L30.1744193,6.5 L25.6744193,2 L24.9244193,2.75 L28.1744193,6 L21.1244203,6 L21.1244203,6 Z M16.6244203,29 C12.8647052,28.9995418 10.6344162,26.9488875 8.87179582,23.9830936 C4.95978233,17.4007216 2.15828327,14.3887562 3.24545305,13.2957153 C4.35605012,12.1791206 7.06602073,14.5979243 9.12442034,16.7983451 L9.12442034,5.50524116 C9.12442034,4.66712976 9.79599321,4 10.6244203,4 C11.4586231,4 12.1244203,4.67391942 12.1244203,5.50524116 L12.1244203,16 L13.1244203,16 L13.1244203,4.49089813 C13.1244203,3.67622006 13.7959932,3 14.6244203,3 C15.4586231,3 16.1244203,3.66749783 16.1244203,4.49089813 L16.1244203,15 L17.1244203,15 L17.1244203,5.5032506 C17.1244203,4.66543579 17.7959932,4 18.6244203,4 C19.4586231,4 20.1244203,4.67302822 20.1244203,5.5032506 L20.1244203,16 L21.1244203,16 L21.1244203,15.5016756 C21.1244203,14.6711894 21.7959932,14 22.6244203,14 C23.4586231,14 24.1244203,14.6723231 24.1244203,15.5016756 L24.1244203,17.7491622 L24.1244203,21.5 C24.1244203,25.6421358 20.7665562,29 16.6244203,29 L16.6244203,29 Z" id="three-fingers-swipe-right" sketch:type="MSShapeGroup"></path>
        </g>
    </g>
</svg>

<svg width="32" height="32" viewBox="0 0 32 32" xmlns="http://www.w3.org/2000/svg"><path d="M21.124 6v-.497A2.496 2.496 0 0 0 18.624 3a2.49 2.49 0 0 0-1.656.627A2.493 2.493 0 0 0 14.624 2a2.499 2.499 0 0 0-2.342 1.626 2.505 2.505 0 0 0-4.157 1.877v8.864c-1.956-1.829-4.188-3.193-5.61-1.771-1.987 1.987 2.187 5.887 5.45 11.832 2.261 4.12 5.547 5.572 8.66 5.572a8.5 8.5 0 0 0 8.5-8.5v-5.986c0-1.38-1.11-2.5-2.5-2.5-.563 0-1.083.186-1.5.5V7h7.05l-3.25 3.25.75.75 4.5-4.5-4.5-4.5-.75.75L28.174 6h-7.05zm-4.5 23c-3.76 0-5.99-2.051-7.752-5.017-3.912-6.582-6.714-9.594-5.627-10.687 1.111-1.117 3.821 1.302 5.88 3.502V5.505a1.499 1.499 0 1 1 3 0V16h1V4.49a1.501 1.501 0 0 1 3 0V15h1V5.503c0-.838.671-1.503 1.5-1.503.834 0 1.5.673 1.5 1.503V16h1v-.498a1.5 1.5 0 1 1 3 0V21.5a7.5 7.5 0 0 1-7.5 7.5z" fill="#929292" fill-rule="evenodd"/></svg>
